-----BEGIN PGP PUBLIC KEY BLOCK-----

mQINBGocs5IBEACda11dNXmOFSzFBKmuOm7s3PSoG3n5XLxx15nXyh4NcrRUR6aU
ZHz/xmBgm/1mbenwvPqaPpoJQTV+0RFjRjBpNelAY7HkFRusvbUWZ9vKwZS4Oq8p
IeK2Ch+UfNjBD3GfE5QjPSBaUXu2n+r4z7s6WBHk5KIYM37RIQSveP7bwbitKMem
ZrMRNZj4mBwjgX3zfLn6yvX08hle3VQgns4CqdXrwlfJo7ctARuMgbuB/gLPbTR7
TVVoXe0Pca5kXAQYILbwW6S909IqSHCnk5dtumRHXsMtIPihnGe+OvKAzn8gurL2
wZcVSyRygaz3Bo1l+cmxKJaFNg3UJ83TZbl/2BFuK7MPa2Qi/g1j61wU16n2uGvj
3Oj/ene4fnYk2grNa0waZc+yr2+lP9+1TxAttJUGBESVG+MTrxG82lwK3O0jO3u2
Xy+MouGV7wSLJgqgK0fDPYso+CdGcG1F4g4HWpyULuXeBNOCrVLTx6Hvq6GPh5qq
po8P7AWTxsHJlwLL0szHy9GB4O0OuC1d2j0h1CcqpbUYCjxIt65TxXFTqbDag2/3
/z7bZ5tphMN8IAn4FL1wKj9dQdFQ6RkxgDrALqazB22QbiV54iQXUcHaEwwurtC/
kiSNFPuG+XiQTlnzsE0ncIXmHa3iTt05p4S0su3mbyEfybBYCdWr8UNrYQARAQAB
tCBEYW4gU2hlcndpbiA8ZHNoZXJ3aW5AZ21haWwuY29tPokCbQQTAQgAVxYhBL6J
Cg1ActJbl9f4TSvfJV737gybBQJqHLOSGxSAAAAAAAQADm1hbnUyLDIuNSsxLjEy
LDAsMwIbAwULCQgHAgIiAgYVCgkICwIEFgIDAQIeBwIXgAAKCRAr3yVe9+4Mm6nx
D/9ciu1zRUuwEBSavCu+EB8oaZYLMgt0W8z3J7+kVEaev0uqQGG0usa9MS2VyHH6
a1R1BzJOWWEFNVXB1Cx/GhYJa9FSTUn3tg5v6iM0FGtddyGd3lRif3awhGBuznEv
whxrdWzKCaxgKIN+K9CFYWyMUvgL7rmYeV1+oF98TJD0mz2ggpiU6LgQPuJr4qGE
W0e2ocGLdy5gRBDCC00Ty1Hylrp0HLvN9Nw2u+zPE3sQn6JypjRGulCcjaHiOLr5
8BbQTBCZGOJRlJMlnEVyYArBR8/KCqmm2yscNGsLAwT4sx1lzRo0wKKN4ia2XUCT
boGYT4V5Vuao7wx346xDwpunY/mUkRLkoyCmjdgtCR36v20m1XZnVpPmCwktGFfC
CRF5GRmwzVdKUWt2j9AKHA4zsk5xv+PFws8tqQ5CZ0GsQL1mXdCG25RsD8+OyQao
Dw/SGaukcM1vhb5VNqfMoj+Ea36v3TicP+uJW/0R/4FH8x6Oxf3CM3pngceywQEm
V2hImmQ3KtWRZeXBb9ggsSiQY6DxFBgngyyjJLkAdcoERrQSAS2Tlck2z9GJINml
ujK/zjl9vf+uXUaWlBmtHM2wgMhdpjeR3YUoLJkPWseTHM+dMGIPO84w6x17VuQ4
laW+T0OJcws/2olZqrgStS5aaInkoyZbTn7dLmQRbnIzJLkCDQRqHLOSARAA1uT5
vJz+IbNFerWX0Vn6/0G34v4QT2Tu4yIyH51MsgJTGX6GDSRZTXU8QoX6Bk/e00sa
CCoeRaRKTaKobJNSrid6Y3sthoIOw379szb9kefyrQrsOoVRIic786ZLa7DcylvU
lcBeSA2+XaYeKzx7Ai/n6OFe9ojzT9Qk+AMPKkhQOEqkL8s4fEcq4pJLTSPxGA//
htn5/eHfq/GirlwF7+/xUVTW+f104eAi5SKDtdEcH7IIL7oUMudBGKKOzRmBEW6+
a3u5NOdw0Cv2xM3ezCIX1MLV1NWIOQDHiPSbEBGVNzOIb89nDyQz5IDtp6A5OUaV
6yN8V26sd9r+/5F27EN66V9Opf2f0Rcj4GIMQAko1wBmz9bjNEk/uCFUGO5ggXXg
Qo+yJBVENpe3UIe7xzMjjp1q9g40YeRAeJF3+yta06ufcupmyycB5vQf1dfYn3tj
nPHDkEm0VtZLOerFjziIdmiGijgY9BlBCoqTDlzr05FDRBXEPkZrTR3P3VaHYAxE
TpfG6BfdqnAFSvk06qUTJIE+1XaPqolAgcBkktvlPFnQIs6A24uFMaeAgOl2tX/5
HOaUIbDOcnkIAm0KKb3GX+LwuoH95kcnzgUsLG6AQJigh5dWTNfAlQ+PcpmMFouk
QJ1N90xhHnwSJQuK+EFhR+TWLpNx214OViGLsZMAEQEAAYkCUgQYAQgAPBYhBL6J
Cg1ActJbl9f4TSvfJV737gybBQJqHLOSGxSAAAAAAAQADm1hbnUyLDIuNSsxLjEy
LDAsMwIbDAAKCRAr3yVe9+4Mm8hYD/9PIE1HukvOXtWhPLcBEBdhUimTrSGyz5pV
Vp0YvDK40aYd8UuGM9kIbwBl6ZrK0XpLVom2Psb6P4hj9oCvgStU6tESfOvQuQad
MAekEgVYlIldlhD2mlbpjQcb1LB5Mr0xtFpZlCA/WyATrXPM/tYog9++lJ+cMU86
QeMhh8m1UE3xbpyU8woMX+rMNy8/X0KmoKXSvltUfAynWlxxqhyoFYMemxTrgyYe
xzAmfJYQXBwTbJADYgOopmQWYlfsWyFNaAhCMYoLfyk+QP+tHcPv64Ka7GBD8ChR
rPGJ40JAm7kprt2VsobsIFVqzMoXfxkpzosN646fv2hl/C3Q7xCW8EjttbZcE0ht
Y9EJwzZW0HnCTShlXFh6MN8WcfwsNPkjSOGLE26oCdpIlcHOCj4CKEr/pM3gqW6f
Tm8Du2kuJN4Ehu+7EBvXqWs6RZgCVxA6EMwyPReREIdShoAx90HWDtY0xM95aMrd
jHN3nelmuW4sXijOcGl14YPXYP31Zr4UgBsrZl9Chr2b45J1G0EKy0hJ8/yt1/U5
P21sGQQeCFWZMhwYuwWjFXl2GsAHidfySEV8QW7XwMw4WUiynyfpk6TNPMX+azyQ
51RPfENODQvMZswVJ7O6ICDNOBxOxTQmgNYkoe5isgwvr4oAwHnixCPnytF9s/tJ
UtOF+5UdYw==
=9FhH
-----END PGP PUBLIC KEY BLOCK-----
